X: 5
T:Piper's Despair
M:4/4
L:1/8
S:Connie Connel, Cork (fiddle)
R:Reel
D:Session tape - Milltown Malbay 1983
N:As played
Z:Bernie Stocks
K:D
EFGA {d}BAFA | {d}BdAd {e}dBAD |1 D2FD ADFA | BdAd {e}dBAF \
:|2 DEFA dfag | {a}gfed Bcde :: e2ge begf | efga bfaf\
|1 de~f2 af~f2 | df~f2 {a}fedf :|2 ~d3e fg{a}gf | gfed Bcde :|
<end>
<start>
